X: 116001
T: SIR JAMES BAIRD
Q: "Strathspey."
R:  Strathspey.
%R: strathspey
B: James Kerr "Merry Melodies" v.1 p.16 s.0 #1
Z: 2017 John Chambers <jc:trillian.mit.edu>
M: C
L: 1/16
K: A
(ucB) |\
vAuE3 vE3uC E4- E2(cB) | AF3 F3E F4- F3A |\
vE3uF AA3 vB3vcue3uf | veuc3 vB3uA F4- F2(cB) |\
AE3 EFAC E4- E2(cB) | AF3 FAFE F4 (FA3) |
E3F AA3 B3ce3f | fedc dcBA F4- F2 |]\
(ucd) |\
ve3uf ec3 e4-e3a | f3g fgaf f4- f3a |\
ec3 B3A A3Bc3B |
AF3 F3E [E4-C4-] [E2C2] (cd) |\
e3f fedc e4- e2(ag) | fefg fgag f4- f2(ag) |\
fedc dcBA A3Bc2A2 | Bcdf ecBA F4- F2 |]

%%sep 1 1 500
%%sep 1 1 500

